svg/Pictogram/pictograms-hazard_signs-13.svg

<svg enable-background="new 0 0 94.264 82.949" viewBox="0 0 94.264 82.949" width="94.26" xmlns="http://www.w3.org/2000/svg"><path d="m46.35.062c-1.504.233-2.826 1.122-3.582 2.438l-42.11 72.951c-.881 1.53-.895 3.44 0 4.985.896 1.545 2.56 2.515 4.357 2.513h84.21c1.801.002 3.465-.968 4.359-2.513.894-1.545.881-3.455 0-4.985l-42.11-72.952c-1.035-1.803-3.086-2.759-5.134-2.437" fill="#fdee1c"/><g fill="#010101"><path d="m46.742 2.121c-.812.126-1.506.617-1.897 1.3l-42.4 73.45c-.465.809-.467 1.846 0 2.647.473.817 1.348 1.353 2.299 1.353h84.8c.953 0 1.826-.533 2.302-1.353.465-.804.463-1.84 0-2.647l-42.4-73.45c-.549-.948-1.601-1.473-2.704-1.3m.4 8.45l36 63.4h-72.05l36.05-63.4"/><path d="m31.21 68.24h31.84v2.547h-31.84z"/></g><path d="m37.792 64.69c7.26-8.649-9.233-14.646 0-25.842m8.372 25.842c7.261-8.649-9.233-14.646 0-25.842m8.819 25.842c7.26-8.649-9.236-14.646 0-25.842" fill="none" stroke="#010101" stroke-miterlimit="10" stroke-width="1.79"/></svg>

<?xml version="1.0" encoding="iso-8859-1"?>
<!-- Generator: Adobe Illustrator 13.0.2, SVG Export Plug-In . SVG Version: 6.00 Build 14948)  --><svg enable-background="new 0 0 94.264 82.949" height="82.949px" id="Layer_1" space="preserve" version="1.1" viewBox="0 0 94.264 82.949" width="94.264px" x="0px" xmlns="http://www.w3.org/2000/svg" xmlns:xlink="http://www.w3.org/1999/xlink" y="0px">
  <metadata>
    <rdf:RDF xmlns:cc="http://web.resource.org/cc/" xmlns:dc="http://purl.org/dc/elements/1.1/" xmlns:rdf="http://www.w3.org/1999/02/22-rdf-syntax-ns#">
      <cc:Work rdf:about="">
        <dc:title></dc:title>
        <dc:description></dc:description>
        <dc:subject>
          <rdf:Bag>
            <rdf:li></rdf:li>
          </rdf:Bag>
        </dc:subject>
        <dc:publisher>
          <cc:Agent rdf:about="http://openclipart.org">
            <dc:title>Source: Open Clip Art Library, Source: Open Clip Art Library</dc:title>
          </cc:Agent>
        </dc:publisher>
        <dc:creator>
          <cc:Agent>
            <dc:title></dc:title>
          </cc:Agent>
        </dc:creator>
        <dc:rights>
          <cc:Agent>
            <dc:title></dc:title>
          </cc:Agent>
        </dc:rights>
        <dc:date></dc:date>
        <dc:format>image/svg+xml</dc:format>
        <dc:type rdf:resource="http://purl.org/dc/dcmitype/StillImage"/>
        <cc:license rdf:resource="http://en.wikipedia.org/wiki/Public_domain"/>
        <dc:language>en</dc:language>
      </cc:Work>
    </rdf:RDF>
  </metadata>
  <path d="M46.355,0.062c-1.504,0.233-2.826,1.122-3.582,2.438L0.666,75.451c-0.881,1.53-0.895,3.44,0,4.985  c0.896,1.545,2.56,2.515,4.357,2.513h84.214c1.801,0.002,3.465-0.968,4.359-2.513c0.894-1.545,0.881-3.455,0-4.985L51.489,2.499  C50.454,0.696,48.403-0.26,46.355,0.062L46.355,0.062z" fill="#FDEE1C"/>
  <path d="M46.742,2.121c-0.812,0.126-1.506,0.617-1.897,1.3l-42.4,73.452c-0.465,0.809-0.467,1.846,0,2.647  c0.473,0.817,1.348,1.353,2.299,1.353h84.8c0.953,0,1.826-0.533,2.302-1.353c0.465-0.804,0.463-1.84,0-2.647l-42.4-73.452  C48.897,2.473,47.845,1.948,46.742,2.121L46.742,2.121z M47.142,10.571l36,63.4h-72.05L47.142,10.571L47.142,10.571z" fill="#010101"/>
  <polygon fill="#010101" points="31.207,68.237 63.054,68.237 63.054,70.787 31.207,70.787 "/>
  <path d="M37.792,64.688  c7.26-8.649-9.233-14.646,0-25.842 M46.164,64.688c7.261-8.649-9.233-14.646,0-25.842 M54.983,64.688  c7.26-8.649-9.236-14.646,0-25.842" fill="none" stroke="#010101" stroke-miterlimit="10" stroke-width="1.7897"/>
</svg>
